core/static/images/facebook.svg

<?xml version="1.0" encoding="UTF-8"?>
<svg width="36px" height="36px" viewBox="0 0 36 36" version="1.1" xmlns="http://www.w3.org/2000/svg" xmlns:xlink="http://www.w3.org/1999/xlink">
    <!-- Generator: Sketch 46.1 (44463) - http://www.bohemiancoding.com/sketch -->
    <title>Group 3@2x</title>
    <desc>Created with Sketch.</desc>
    <defs></defs>
    <g id="Guerilla-Prototype-5" stroke="none" stroke-width="1" fill="none" fill-rule="evenodd">
        <g id="Prototype-5-Article" transform="translate(-59.000000, -407.000000)">
            <g id="Group-6" transform="translate(59.000000, 361.000000)">
                <g id="Group-12">
                    <g id="Group-3" transform="translate(0.000000, 46.000000)">
                        <rect id="Rectangle-2" fill="#0B89FF" x="0" y="0" width="36" height="36" rx="18"></rect>
                        <path d="M19.011986,26 L11.8278849,26 C11.3705227,26 11,25.6292474 11,25.1720634 L11,11.8278784 C11,11.370578 11.3705809,11 11.8278849,11 L25.1721734,11 C25.6293609,11 26,11.370578 26,11.8278784 L26,25.1720634 C26,25.6293056 25.6293027,26 25.1721734,26 L21.3497829,26 L21.3497829,20.1911733 L23.2995379,20.1911733 L23.591486,17.9273705 L21.3497829,17.9273705 L21.3497829,16.4820754 C21.3497829,15.8266523 21.5317849,15.380003 22.471653,15.380003 L23.6704098,15.3794792 L23.6704098,13.3547158 C23.4630894,13.3271276 22.7514949,13.2654907 21.92361,13.2654907 C20.1952607,13.2654907 19.011986,14.320477 19.011986,16.2578778 L19.011986,17.9273705 L17.0572256,17.9273705 L17.0572256,20.1911733 L19.011986,20.1911733 L19.011986,26 L19.011986,26 Z" id="Facebook" fill="#FFFFFF"></path>
                    </g>
                </g>
            </g>
        </g>
    </g>
</svg>

<svg xmlns="http://www.w3.org/2000/svg" width="36" height="36" viewBox="0 0 36 36">
    <g fill="none" fill-rule="evenodd">
        <rect width="36" height="36" fill="#006CCC" rx="18"/>
        <path fill="#FFF" d="M19.012 26h-7.184a.828.828 0 0 1-.828-.828V11.828c0-.457.37-.828.828-.828h13.344c.457 0 .828.37.828.828v13.344c0 .457-.37.828-.828.828H21.35v-5.809h1.95l.291-2.264H21.35v-1.445c0-.655.182-1.102 1.122-1.102h1.198v-2.025c-.207-.028-.919-.09-1.746-.09-1.729 0-2.912 1.055-2.912 2.993v1.67h-1.955v2.263h1.955V26z"/>
    </g>
</svg>
